Yaru++/actions/16/distribute-vertical-node.svg

<svg height="24" viewBox="0 0 24 24" width="24" xmlns="http://www.w3.org/2000/svg">
  <path d="m4.3259048 3.9950182a.33332471.33333806 0 0 0 -.2423024.5536479c.6046601.705668 1.7007503 1.0467109 2.9870935 1.3222416.9112988.1952263 1.9212256.3454933 2.9271693.4976323v1.630981h1.3378738v2.000949h-1.3378738v.96009c-.00266.000438-.00515.0008-.00782.0013-1.4069338.23105-2.8201039.532775-3.939368 1.122928-1.1193975.590154-1.9552333 1.522814-2.0465433 2.891997-.036008.543617.1653071 1.027735.5223831 1.384771.3570827.35699.8502324.60429 1.4355765.798555 1.0798454.358323 2.4989725.533024 4.0357679.673497v1.502014h1.3378736v.664378h.333491.333492v-.333468-.330886h1.328756v-1.198485c2.470171.241341 4.831293.593944 6.150051 1.473354a.33347933.333486 0 0 0 .369966-.55495c-.726944-.484797-1.66354-.811637-2.700499-1.053885h2.849008v-.667003h-1.667453-5.001069v-1.332663h-1.328756v-2.667932h1.328756v-1.333966h5.001069 1.667457v-.666983h-1.667457-5.001069v-.22667c.236378-.0453.47224-.09056.690431-.143297.566395-.136944 1.066055-.302341 1.469446-.540621.403425-.238273.723811-.570051.833729-1.009593.140067-.558265.07216-1.075937-.171957-1.496804-.244782-.420866-.6427-.737502-1.122928-.991355-.182086-.09638-.388569-.178133-.595334-.259238h3.897682 1.667457v-.6669827h-6.668526v-1.332663h-1.328756v-.3334916-.3334914h-.666983v.3334914.3334916h-1.3378738v1.027831c-.9730614-.1478034-1.9383775-.2935329-2.7877802-.4754858-1.2417222-.2659928-2.2246112-.6423492-2.6197319-1.1033878a.33332471.33333806 0 0 0 -.2644483-.1198485zm14.0066422 2.6705368-1.021318 1.333966h.687826v2.000949h-.666983l1.000475 1.332663 1.000474-1.332663h-.666982v-2.000949h.646139zm0 5.334561-1.021318 1.333966h.687826v2.667932h-.666983l1.000475 1.332663 1.000474-1.332663h-.666982v-2.667932h.646139zm-5.001069-4.994556c.532805.14607 1.012131.311122 1.387376.509356.410761.217037.699368.464044.857177.736026.157835.271989.207835.5753.101611 1.000475-.05668.227168-.216383.415633-.524989.59794-.308666.1823-.754816.337673-1.287068.466367-.165852.0401-.353035.07482-.534107.11073v-.425984h-1.328756v-2.000949h1.328756zm-3.3336128 4.632405v1.696117h1.3378738v2.667932h-1.3378738v1.160707c-1.4995777-.1394-2.8652441-.315598-3.8260329-.634416-.5279171-.175416-.930187-.393541-1.1750364-.638324-.2448495-.244783-.3517497-.497391-.326978-.868901.075302-1.130536.6974036-1.823218 1.6922087-2.347467.9704601-.511576 2.286999-.810208 3.6358386-1.035648z" fill="#808080"/>
</svg>

<svg xmlns="http://www.w3.org/2000/svg" width="24" height="24" version="1.1" viewBox="0 0 24 24">
 <defs>
  <style id="current-color-scheme" type="text/css">
   .ColorScheme-Text { color:#808080; } .ColorScheme-Highlight { color:#4285f4; }
  </style>
 </defs>
 <path style="fill:currentColor" class="ColorScheme-Text" d="M 4.3259048,3.9950182 A 0.33332471,0.33333806 0 0 0 4.0836024,4.5486661 C 4.6882625,5.2543341 5.7843527,5.595377 7.0706959,5.8709077 7.9819947,6.066134 8.9919215,6.216401 9.9978652,6.36854 V 7.999521 H 11.335739 V 10.00047 H 9.9978652 v 0.96009 c -0.00266,4.38e-4 -0.00515,8e-4 -0.00782,0.0013 -1.4069338,0.23105 -2.8201039,0.532775 -3.939368,1.122928 -1.1193975,0.590154 -1.9552333,1.522814 -2.0465433,2.891997 -0.036008,0.543617 0.1653071,1.027735 0.5223831,1.384771 0.3570827,0.35699 0.8502324,0.60429 1.4355765,0.798555 1.0798454,0.358323 2.4989725,0.533024 4.0357679,0.673497 v 1.502014 H 11.335735 V 20 h 0.333491 0.333492 v -0.333468 -0.330886 h 1.328756 v -1.198485 c 2.470171,0.241341 4.831293,0.593944 6.150051,1.473354 a 0.33347933,0.333486 0 0 0 0.369966,-0.55495 C 19.124547,18.570768 18.187951,18.243928 17.150992,18.00168 H 20 v -0.667003 h -1.667453 -5.001069 v -1.332663 h -1.328756 v -2.667932 h 1.328756 v -1.333966 h 5.001069 1.667457 v -0.666983 h -1.667457 -5.001069 v -0.22667 c 0.236378,-0.0453 0.47224,-0.09056 0.690431,-0.143297 0.566395,-0.136944 1.066055,-0.302341 1.469446,-0.540621 C 15.89478,10.184272 16.215166,9.852494 16.325084,9.412952 16.465151,8.854687 16.397244,8.337015 16.153127,7.916148 15.908345,7.495282 15.510427,7.178646 15.030199,6.924793 14.848113,6.828413 14.64163,6.74666 14.434865,6.665555 h 3.897682 1.667457 V 5.9985723 H 13.331478 V 4.6659093 H 12.002722 V 4.3324177 3.9989263 H 11.335739 V 4.3324177 4.6659093 H 9.9978652 v 1.027831 C 9.0248038,5.5459369 8.0594877,5.4002074 7.210085,5.2182545 5.9683628,4.9522617 4.9854738,4.5759053 4.5903531,4.1148667 A 0.33332471,0.33333806 0 0 0 4.3259048,3.9950182 Z M 18.332547,6.665555 17.311229,7.999521 h 0.687826 v 2.000949 h -0.666983 l 1.000475,1.332663 1.000474,-1.332663 H 18.666039 V 7.999521 h 0.646139 z m 0,5.334561 -1.021318,1.333966 h 0.687826 v 2.667932 h -0.666983 l 1.000475,1.332663 1.000474,-1.332663 h -0.666982 v -2.667932 h 0.646139 z M 13.331478,7.00556 c 0.532805,0.14607 1.012131,0.311122 1.387376,0.509356 0.410761,0.217037 0.699368,0.464044 0.857177,0.736026 0.157835,0.271989 0.207835,0.5753 0.101611,1.000475 -0.05668,0.227168 -0.216383,0.415633 -0.524989,0.59794 -0.308666,0.1823 -0.754816,0.337673 -1.287068,0.466367 -0.165852,0.0401 -0.353035,0.07482 -0.534107,0.11073 V 10.00047 H 12.002722 V 7.999521 h 1.328756 z m -3.3336128,4.632405 v 1.696117 h 1.3378738 v 2.667932 H 9.9978652 v 1.160707 C 8.4982875,17.023321 7.1326211,16.847123 6.1718323,16.528305 5.6439152,16.352889 5.2416453,16.134764 4.9967959,15.889981 4.7519464,15.645198 4.6450462,15.39259 4.6698179,15.02108 c 0.075302,-1.130536 0.6974036,-1.823218 1.6922087,-2.347467 0.9704601,-0.511576 2.286999,-0.810208 3.6358386,-1.035648 z"/>
</svg>
